lib/brands/icons/whatsapp.svg

<svg xmlns="http://www.w3.org/2000/svg" fill="none" aria-hidden="true" viewBox="0 0 48 48"><g id="whatsapp-Icon"><g id="WhatsApp"><path id="Oval" fill="#25D366" d="M24 48C37.2548 48 48 37.2548 48 24C48 10.7452 37.2548 0 24 0C10.7452 0 0 10.7452 0 24C0 37.2548 10.7452 48 24 48Z"/><path id="Logo" fill="#FDFDFD" fill-rule="evenodd" d="M24.791 37.3525H24.7851C22.3966 37.3517 20.0497 36.7524 17.9653 35.6154L10.3999 37.6L12.4245 30.2048C11.1756 28.0405 10.5185 25.5855 10.5196 23.0702C10.5227 15.2017 16.9247 8.79999 24.7908 8.79999C28.6085 8.80164 32.1917 10.2879 34.8861 12.9854C37.5805 15.6828 39.0636 19.2683 39.062 23.0815C39.0589 30.9483 32.6594 37.3493 24.791 37.3525ZM18.3158 33.0319L18.7489 33.2889C20.5701 34.3697 22.6577 34.9415 24.7862 34.9423H24.791C31.3287 34.9423 36.6498 29.6211 36.6524 23.0807C36.6537 19.9112 35.4211 16.9311 33.1816 14.689C30.9421 12.4469 27.9639 11.2115 24.7956 11.2104C18.2528 11.2104 12.9317 16.5311 12.9291 23.0711C12.9282 25.3124 13.5553 27.4951 14.7426 29.3836L15.0247 29.8324L13.8264 34.2095L18.3158 33.0319ZM31.4923 26.154C31.741 26.2742 31.909 26.3554 31.9807 26.4751C32.0698 26.6238 32.0698 27.3378 31.7728 28.1708C31.4755 29.0038 30.051 29.764 29.3658 29.8663C28.7515 29.9582 27.974 29.9965 27.1199 29.725C26.6019 29.5607 25.9378 29.3413 25.087 28.9739C21.7441 27.5304 19.4849 24.2904 19.058 23.678C19.028 23.6351 19.0071 23.6051 18.9955 23.5895L18.9926 23.5857C18.8039 23.3339 17.5394 21.6468 17.5394 19.9008C17.5394 18.2582 18.3463 17.3973 18.7176 17.001C18.7431 16.9739 18.7665 16.9489 18.7874 16.926C19.1143 16.569 19.5006 16.4797 19.7383 16.4797C19.976 16.4797 20.214 16.4819 20.4218 16.4924C20.4474 16.4937 20.4741 16.4935 20.5016 16.4933C20.7094 16.4921 20.9685 16.4906 21.2241 17.1045C21.3224 17.3407 21.4663 17.691 21.618 18.0604C21.9248 18.8074 22.2639 19.6328 22.3235 19.7522C22.4127 19.9307 22.4721 20.1389 22.3532 20.3769C22.3354 20.4126 22.3189 20.4463 22.3031 20.4785C22.2138 20.6608 22.1482 20.7948 21.9967 20.9718C21.9371 21.0413 21.8755 21.1163 21.8139 21.1913C21.6912 21.3407 21.5686 21.4901 21.4618 21.5965C21.2832 21.7743 21.0974 21.9672 21.3054 22.3242C21.5134 22.6812 22.2291 23.8489 23.2891 24.7945C24.4287 25.8109 25.4191 26.2405 25.9211 26.4582C26.0191 26.5008 26.0985 26.5352 26.1568 26.5644C26.5132 26.7429 26.7212 26.713 26.9293 26.4751C27.1373 26.2371 27.8207 25.4338 28.0583 25.0769C28.296 24.7201 28.5338 24.7795 28.8606 24.8984C29.1876 25.0176 30.9407 25.8801 31.2973 26.0586C31.3669 26.0934 31.432 26.1249 31.4923 26.154Z" clip-rule="evenodd"/></g></g></svg>

<svg xmlns="http://www.w3.org/2000/svg" fill="none" aria-hidden="true" viewBox="0 0 48 48"><path fill="#25D366" d="M24 48c13.255 0 24-10.745 24-24S37.255 0 24 0 0 10.745 0 24s10.745 24 24 24Z"/><path fill="#FDFDFD" fill-rule="evenodd" d="M24.791 37.352h-.006c-2.388 0-4.735-.6-6.82-1.737L10.4 37.6l2.024-7.395a14.245 14.245 0 0 1-1.904-7.135c.003-7.868 6.405-14.27 14.27-14.27a14.18 14.18 0 0 1 10.096 4.185 14.184 14.184 0 0 1 4.176 10.096c-.003 7.867-6.403 14.268-14.271 14.271Zm-6.475-4.32.433.257a11.843 11.843 0 0 0 6.037 1.653h.005c6.538 0 11.859-5.32 11.861-11.861a11.79 11.79 0 0 0-3.47-8.392 11.78 11.78 0 0 0-8.386-3.479c-6.543 0-11.864 5.321-11.867 11.861 0 2.241.626 4.424 1.814 6.313l.282.448-1.199 4.377 4.49-1.177Zm13.176-6.878c.249.12.417.201.489.321.089.149.089.863-.208 1.696s-1.722 1.593-2.407 1.695c-.614.092-1.392.13-2.246-.141a20.476 20.476 0 0 1-2.033-.751c-3.343-1.444-5.602-4.684-6.029-5.296-.03-.043-.05-.073-.063-.088l-.002-.004c-.19-.252-1.454-1.94-1.454-3.685 0-1.643.807-2.504 1.179-2.9l.07-.075a1.31 1.31 0 0 1 .95-.446 14.808 14.808 0 0 1 .764.013c.207 0 .466-.002.722.612l.394.955c.307.747.646 1.573.706 1.692.089.179.148.387.03.625-.019.036-.035.07-.05.102-.09.182-.156.316-.307.493-.06.07-.122.144-.183.22-.123.149-.245.298-.352.404-.179.178-.365.371-.157.728s.924 1.525 1.984 2.47a9.21 9.21 0 0 0 2.632 1.664c.098.043.178.077.236.106.356.179.564.149.772-.089.208-.238.892-1.041 1.13-1.398.237-.357.475-.298.802-.179.327.12 2.08.982 2.436 1.16l.195.096Z" clip-rule="evenodd"/></svg>
